X: 9
T:Webley Twizzle - Bampton
S:OY(AB)4
N:Tune as played for Grand Union Morris
N:www.grandunionmorris.co.uk
M:6/8
L:1/8
K:G
"A"D | GFG AGA | BdB AGA | BAG EAG | FEF G2 :||
"B"B | d2 e dBG | d2 e dBG | EAG FED | EAG FED |  BAG EAG | FEF G2 :||
